svgs/thin/taxi-bus.svg

<svg xmlns="http://www.w3.org/2000/svg" viewBox="0 0 640 512"><!--! Font Awesome Pro 6.6.0 by @fontawesome - https://fontawesome.com License - https://fontawesome.com/license (Commercial License) Copyright 2024 Fonticons, Inc. --><path d="M32.8 58.5C57.3 38.7 106.8 16 192 16s134.7 22.7 159.2 42.5c10.7 8.7 15.4 22.5 16.5 38.3c2.7-.6 5.4-.9 8.3-.9l7.7 0c-1.3-18.1-6.8-37.2-22.4-49.9C333.3 23.4 280 0 192 0S50.7 23.4 22.7 46.1C4.4 61 0 84.5 0 105.1L0 361.5c0 22.3 13.1 41.6 32 50.6l0 3.9 0 32c0 17.7 14.3 32 32 32l16 0c17.7 0 32-14.3 32-32l0-30.5 112 0 0-16-112 0 0-1.5-16 0-48 0-2.7 0C28.4 395.3 16 379.8 16 361.5L16 248l176 0 86.1 0 4.6-16L200 232l0-112 139.3 0c2.8-6.4 7.2-11.9 12.7-16l-160 0L16 104c.2-18.7 4.5-35.5 16.8-45.5zM16 120l168 0 0 112L16 232l0-112zM48 416.9c2.6 .4 5.3 .6 8 .6l40 0L96 448c0 8.8-7.2 16-16 16l-16 0c-8.8 0-16-7.2-16-16l0-31.1zM96 336a16 16 0 1 1 0-32 16 16 0 1 1 0 32zM64 320a32 32 0 1 0 64 0 32 32 0 1 0 -64 0zM408 144c-13.3 0-24 10.7-24 24l0 8 128 0 0-8c0-13.3-10.7-24-24-24l-80 0zm-39.9 33.3c0-.4-.1-.9-.1-1.3l0-8c0-22.1 17.9-40 40-40l80 0c22.1 0 40 17.9 40 40l0 8c0 .4 0 .9-.1 1.3c19.7 4.4 36 19.2 41.7 39.3l22.1 77.2-1 .3c29 12 49.3 40.6 49.3 73.9l0 64 0 16 0 32c0 17.7-14.3 32-32 32l-16 0c-17.7 0-32-14.3-32-32l0-32-224 0 0 32c0 17.7-14.3 32-32 32l-16 0c-17.7 0-32-14.3-32-32l0-32 0-16 0-64c0-33.3 20.4-61.9 49.3-73.9l-1-.3 22.1-77.2c5.7-20 22-34.9 41.7-39.3zM560 432l16 0 48 0 0-64c0-35.3-28.7-64-64-64l-224 0c-35.3 0-64 28.7-64 64l0 64 48 0 16 0 224 0zm16 16l0 32c0 8.8 7.2 16 16 16l16 0c8.8 0 16-7.2 16-16l0-32-48 0zm-304 0l0 32c0 8.8 7.2 16 16 16l16 0c8.8 0 16-7.2 16-16l0-32-48 0zM512 192l-128 0-3.8 0c-17.9 0-33.6 11.8-38.5 29l-19.5 68.2c4.5-.8 9-1.2 13.7-1.2l224 0c4.7 0 9.3 .4 13.7 1.2L554.3 221c-4.9-17.2-20.6-29-38.5-29l-3.8 0zM320 368a16 16 0 1 0 32 0 16 16 0 1 0 -32 0zm16 32a32 32 0 1 1 0-64 32 32 0 1 1 0 64zm224-48a16 16 0 1 0 0 32 16 16 0 1 0 0-32zm32 16a32 32 0 1 1 -64 0 32 32 0 1 1 64 0z"/></svg>

<svg xmlns="http://www.w3.org/2000/svg" viewBox="0 0 640 512"><!--! Font Awesome Pro 6.4.2 by @fontawesome - https://fontawesome.com License - https://fontawesome.com/license (Commercial License) Copyright 2023 Fonticons, Inc. --><path d="M32.8 58.5C57.3 38.7 106.8 16 192 16s134.7 22.7 159.2 42.5c10.7 8.7 15.4 22.5 16.5 38.3c2.7-.6 5.4-.9 8.3-.9h7.7c-1.3-18.1-6.8-37.2-22.4-49.9C333.3 23.4 280 0 192 0S50.7 23.4 22.7 46.1C4.4 61 0 84.5 0 105.1V361.5c0 22.3 13.1 41.6 32 50.6V416v32c0 17.7 14.3 32 32 32H80c17.7 0 32-14.3 32-32V417.5H224v-16H112V400H96 48 45.3C28.4 395.3 16 379.8 16 361.5V248H192h86.1l4.6-16H200V120H339.3c2.8-6.4 7.2-11.9 12.7-16H192 16c.2-18.7 4.5-35.5 16.8-45.5zM16 120H184V232H16V120zM48 416.9c2.6 .4 5.3 .6 8 .6H96V448c0 8.8-7.2 16-16 16H64c-8.8 0-16-7.2-16-16V416.9zM96 336a16 16 0 1 1 0-32 16 16 0 1 1 0 32zM64 320a32 32 0 1 0 64 0 32 32 0 1 0 -64 0zM408 144c-13.3 0-24 10.7-24 24v8H512v-8c0-13.3-10.7-24-24-24H408zm-39.9 33.3c0-.4-.1-.9-.1-1.3v-8c0-22.1 17.9-40 40-40h80c22.1 0 40 17.9 40 40v8c0 .4 0 .9-.1 1.3c19.7 4.4 36 19.2 41.7 39.3l22.1 77.2-1 .3c29 12 49.3 40.6 49.3 73.9v64 16 32c0 17.7-14.3 32-32 32H592c-17.7 0-32-14.3-32-32V448H336v32c0 17.7-14.3 32-32 32H288c-17.7 0-32-14.3-32-32V448 432 368c0-33.3 20.4-61.9 49.3-73.9l-1-.3 22.1-77.2c5.7-20 22-34.9 41.7-39.3zM560 432h16 48V368c0-35.3-28.7-64-64-64H336c-35.3 0-64 28.7-64 64v64h48 16H560zm16 16v32c0 8.8 7.2 16 16 16h16c8.8 0 16-7.2 16-16V448H576zm-304 0v32c0 8.8 7.2 16 16 16h16c8.8 0 16-7.2 16-16V448H272zM512 192H384h-3.8c-17.9 0-33.6 11.8-38.5 29l-19.5 68.2c4.5-.8 9-1.2 13.7-1.2H560c4.7 0 9.3 .4 13.7 1.2L554.3 221c-4.9-17.2-20.6-29-38.5-29H512zM320 368a16 16 0 1 0 32 0 16 16 0 1 0 -32 0zm16 32a32 32 0 1 1 0-64 32 32 0 1 1 0 64zm224-48a16 16 0 1 0 0 32 16 16 0 1 0 0-32zm32 16a32 32 0 1 1 -64 0 32 32 0 1 1 64 0z"/></svg>
